Catalina-light/actions/16/document-open.svg

<svg xmlns="http://www.w3.org/2000/svg" width="16" height="16" viewBox="0 0 16 16">
 <defs>
  <style id="current-color-scheme" type="text/css">
   .ColorScheme-Text { color:#5c616c; } .ColorScheme-Highlight { color:#5294e2; }
  </style>
 </defs>
 <path style="fill:currentColor" class="ColorScheme-Text" d="M 8 0.72265625 L 3.6171875 7.0292969 L 5.9921875 7.0292969 L 6.0019531 13 L 10 13 L 9.9902344 7.0292969 L 12.332031 7.0292969 L 8 0.72265625 z M 1 14.03125 L 1 16 L 15.005859 16 L 15 14.03125 L 1 14.03125 z"/>
</svg>

<svg width="16" height="16" viewBox="0 0 16 16" xmlns="http://www.w3.org/2000/svg">
<defs>
<style id="current-color-scheme" type="text/css">.ColorScheme-Text { color:#5c616c; } .ColorScheme-Highlight { color:#5294e2; }</style>
</defs>
<path class="ColorScheme-Text" d="m8 0.72266-4.3828 6.3066h2.375l0.0097656 5.9707h3.998l-0.0097656-5.9707h2.3418l-4.332-6.3066zm-7 13.309v1.9688h14.006l-0.005859-1.9688h-14z" fill="#363636"/>
</svg>
